src/pics/github-card-icon.svg

<svg fill="none" height="48" viewBox="0 0 44 48" width="44" xmlns="http://www.w3.org/2000/svg"><path d="m43.72 17.9c-.0111-2.9351-1.0236-5.7784-2.87-8.06.6268-2.60851.4311-5.34705-.56-7.84-.0965-.2369-.2443-.44946-.4327-.62237-.1885-.17292-.413-.30189-.6573-.37763-.7-.24-3.35-.69-8.75 2.81-2.3225-.61293-4.7184-.90232-7.12-.86-2.4049-.04286-4.8042.24654-7.13.86-5.54-3.58-8.42-3-9-2.83-.24566.07912-.47077.2116-.65922.38795-.18844.17634-.33555.39218-.43078.63205-.99362 2.48483-1.19617 5.21577-.58 7.82-1.90676 2.2701-2.92321 5.156-2.86 8.12 0 11.06 6.33 14.4 12.13 15.58-.2977.7281-.5027 1.4908-.61 2.27-.0105.083-.0105.167 0 .25v3.06c-5.28.44-6.41-2.65-6.52-3-.02559-.0816-.05564-.1617-.09-.24-1.01982-2.0807-2.81503-3.6784-5-4.45-.44026-.1472-.92096-.1135-1.33635.0938-.415396.2072-.731455.5709-.87865 1.0112s-.113468.921.093759 1.3364c.207228.4153.570981.7314 1.011241.8786 1.21082.4374 2.22056 1.3014 2.84 2.43.7 2.27 3.56 5.86 9.86 5.46v2.88c0 .4641.1844.9092.5126 1.2374s.7733.5126 1.2374.5126.9092-.1844 1.2374-.5126.5126-.7733.5126-1.2374v-9.33c.1328-1.0189.5762-1.9721 1.27-2.73.243-.2275.4157-.5199.4975-.8426.0819-.3227.0694-.6621-.0359-.9779-.1053-.3159-.2989-.5949-.558-.8039-.2591-.2091-.5727-.3394-.9036-.3756-6.1-.71-11.74-2.72-11.74-12.57-.04055-1.189.16603-2.3734.60667-3.4785.44065-1.105 1.10577-2.1067 1.95333-2.9415.22793-.2453.38541-.5476.45581-.875s.05112-.66767-.05581-.985c-.58911-1.71185-.62758-3.56518-.11-5.3 2.1472.48479 4.1637 1.42988 5.91 2.77.2244.14851.4794.24451.746.28087.2666.03635.538.01213.794-.07087 2.2219-.67629 4.5382-.99031 6.86-.93 2.3185-.06046 4.6316.25358 6.85.93.2559.08373.5274.10834.7941.07197.2668-.03638.5218-.13279.7459-.28197 1.682-1.28877 3.6073-2.22418 5.66-2.75.5098 1.75402.4644 3.62281-.13 5.35-.0979.28822-.118.5972-.0583.8957.0597.2984.1971.5759.3983.8043 1.6555 1.7676 2.5932 4.0885 2.63 6.51 0 9.83-5.93 11.87-11.74 12.57-.3478.0387-.6759.1814-.9414.4094-.2655.2281-.4561.5309-.5468.8689-.0907.3381-.0774.6956.0383 1.0259.1156.3304.3282.6181.6099.8258.62.47 1.34 1.79 1.34 4v7.92c0 .4641.1844.9093.5126 1.2374.3282.3282.7733.5126 1.2374.5126s.9092-.1844 1.2374-.5126c.3282-.3281.5126-.7733.5126-1.2374v-7.92c.0183-1.3926-.2365-2.7754-.75-4.07 4.7-1 11.96-4.09 11.96-15.6z" fill="#000"/></svg>

<svg width="44" height="48" viewBox="0 0 44 48" fill="none" xmlns="http://www.w3.org/2000/svg">
<path d="M43.72 17.9C43.7089 14.9649 42.6964 12.1216 40.85 9.84C41.4768 7.23149 41.2811 4.49295 40.29 2C40.1935 1.7631 40.0457 1.55054 39.8573 1.37763C39.6688 1.20471 39.4443 1.07574 39.2 1C38.5 0.76 35.85 0.31 30.45 3.81C28.1275 3.19707 25.7316 2.90768 23.33 2.95C20.9251 2.90714 18.5258 3.19654 16.2 3.81C10.66 0.23 7.78 0.81 7.2 0.98C6.95434 1.05912 6.72923 1.1916 6.54078 1.36795C6.35234 1.54429 6.20523 1.76013 6.11 2C5.11638 4.48483 4.91383 7.21577 5.53 9.82C3.62324 12.0901 2.60679 14.976 2.67 17.94C2.67 29 9 32.34 14.8 33.52C14.5023 34.2481 14.2973 35.0108 14.19 35.79C14.1795 35.873 14.1795 35.957 14.19 36.04V39.1C8.91 39.54 7.78 36.45 7.67 36.1C7.64441 36.0184 7.61436 35.9383 7.58 35.86C6.56018 33.7793 4.76497 32.1816 2.58 31.41C2.13974 31.2628 1.65904 31.2965 1.24365 31.5038C0.828254 31.711 0.512195 32.0747 0.365 32.515C0.217805 32.9553 0.251532 33.436 0.458759 33.8514C0.665987 34.2667 1.02974 34.5828 1.47 34.73C2.68082 35.1674 3.69056 36.0314 4.31 37.16C5.01 39.43 7.87 43.02 14.17 42.62V45.5C14.17 45.9641 14.3544 46.4092 14.6826 46.7374C15.0108 47.0656 15.4559 47.25 15.92 47.25C16.3841 47.25 16.8292 47.0656 17.1574 46.7374C17.4856 46.4092 17.67 45.9641 17.67 45.5V36.17C17.8028 35.1511 18.2462 34.1979 18.94 33.44C19.183 33.2125 19.3557 32.9201 19.4375 32.5974C19.5194 32.2747 19.5069 31.9353 19.4016 31.6195C19.2963 31.3036 19.1027 31.0246 18.8436 30.8156C18.5845 30.6065 18.2709 30.4762 17.94 30.44C11.84 29.73 6.2 27.72 6.2 17.87C6.15945 16.681 6.36603 15.4966 6.80667 14.3915C7.24732 13.2865 7.91244 12.2848 8.76 11.45C8.98793 11.2047 9.14541 10.9024 9.21581 10.575C9.28621 10.2476 9.26693 9.90733 9.16 9.59C8.57089 7.87815 8.53242 6.02482 9.05 4.29C11.1972 4.77479 13.2137 5.71988 14.96 7.06C15.1844 7.20851 15.4394 7.30451 15.706 7.34087C15.9726 7.37722 16.244 7.353 16.5 7.27C18.7219 6.59371 21.0382 6.27969 23.36 6.34C25.6785 6.27954 27.9916 6.59358 30.21 7.27C30.4659 7.35373 30.7374 7.37834 31.0041 7.34197C31.2709 7.30559 31.5259 7.20918 31.75 7.06C33.432 5.77123 35.3573 4.83582 37.41 4.31C37.9198 6.06402 37.8744 7.93281 37.28 9.66C37.1821 9.94822 37.162 10.2572 37.2217 10.5557C37.2814 10.8541 37.4188 11.1316 37.62 11.36C39.2755 13.1276 40.2132 15.4485 40.25 17.87C40.25 27.7 34.32 29.74 28.51 30.44C28.1622 30.4787 27.8341 30.6214 27.5686 30.8494C27.3031 31.0775 27.1125 31.3803 27.0218 31.7183C26.9311 32.0564 26.9444 32.4139 27.0601 32.7442C27.1757 33.0746 27.3883 33.3623 27.67 33.57C28.29 34.04 29.01 35.36 29.01 37.57V45.49C29.01 45.9541 29.1944 46.3993 29.5226 46.7274C29.8508 47.0556 30.2959 47.24 30.76 47.24C31.2241 47.24 31.6692 47.0556 31.9974 46.7274C32.3256 46.3993 32.51 45.9541 32.51 45.49V37.57C32.5283 36.1774 32.2735 34.7946 31.76 33.5C36.46 32.5 43.72 29.41 43.72 17.9Z" fill="black"/>
</svg>
